X:1
T:Title
%%score { 1 | 2 }
L:1/8
Q:1/4=100
M:6/8
K:G
V:1 treble nm="Grand Piano"
V:2 bass 
V:1
 [B,D][B,G][CA] [DB]2 [DB] | [DB]AG d3 | [B,D][B,G][CA] B2 B | BAG A3 | [B,G][B,G][CA] [DB]2 [DB] | %5
w: Charles~Gabriel * * * *|||||
 BAG d3 | [Ge][Ge][Ge] [Gd]2 [^CG] | [DGB][DGB][CDA] [B,DG]3 | [FA][FA][FA] [FA] [Fd]2 | %9
w: ||||
 ^c>B[Gc] [Fd]3 | dBe d2 G | [GB][GB][CDA] [B,DG]3 |] %12
w: |||
V:2
 [G,,G,][G,,G,][G,,G,] [G,,G,]2 [G,,G,] | [G,,G,][G,CD][G,B,D] [G,B,D]3 | %2
 [G,,G,][G,,G,][G,,G,] [G,D]2 [G,D] | [G,D][F,A,D][E,A,^C] [D,F,D]3 | %4
 [G,,G,][G,,G,][G,,G,] [G,,G,]2 [G,,G,] | [G,D][G,CD][G,B,D] [G,B,G]3 | %6
 [C,C][C,C][C,C] [G,B,]2 E, | D,D,D, G,,3 | [D,D][D,D][D,D] [D,D] [D,A,]2 | %9
 [A,G]>[A,G][K:bass][A,,A,] [D,A,]3 | [G,B,G][G,DG][G,CG] [G,B,G]2[K:bass] [E,^C] | %11
 [D,D][D,D]D, G,,3 |] %12

